icons/cog.svg

<svg width="14" height="14" viewBox="0 0 14 14" fill="none" xmlns="http://www.w3.org/2000/svg">
<path d="M7 1C7.27614 1 7.5 1.22386 7.5 1.5V2.02441C8.0494 2.07896 8.57221 2.2236 9.05469 2.44141L9.31738 1.9873C9.45544 1.74818 9.76086 1.66569 10 1.80371C10.2391 1.94178 10.3207 2.24816 10.1826 2.4873L9.91895 2.94141C10.3572 3.25713 10.7418 3.64194 11.0576 4.08008L11.5127 3.81738C11.7518 3.67931 12.0582 3.76085 12.1963 4C12.3343 4.23914 12.2518 4.54456 12.0127 4.68262L11.5576 4.94434C11.7757 5.42714 11.921 5.95015 11.9756 6.5H12.5C12.7761 6.5 13 6.72386 13 7C13 7.27614 12.7761 7.5 12.5 7.5H11.9756C11.921 8.04954 11.7755 8.57211 11.5576 9.05469L12.0127 9.31738C12.2518 9.45544 12.3343 9.76086 12.1963 10C12.0582 10.2391 11.7518 10.3207 11.5127 10.1826L11.0576 9.91895C10.7418 10.3572 10.3572 10.7418 9.91895 11.0576L10.1826 11.5127C10.3207 11.7518 10.2391 12.0582 10 12.1963C9.76086 12.3343 9.45544 12.2518 9.31738 12.0127L9.05469 11.5576C8.57213 11.7755 8.0495 11.92 7.5 11.9746V12.5C7.5 12.7761 7.27614 13 7 13C6.72386 13 6.5 12.7761 6.5 12.5V11.9746C5.95019 11.92 5.42711 11.7757 4.94434 11.5576L4.68262 12.0127C4.54456 12.2518 4.23914 12.3343 4 12.1963C3.76085 12.0582 3.67931 11.7518 3.81738 11.5127L4.08008 11.0576C3.64194 10.7418 3.25713 10.3572 2.94141 9.91895L2.4873 10.1826C2.24816 10.3207 1.94178 10.2391 1.80371 10C1.66569 9.76086 1.74818 9.45544 1.9873 9.31738L2.44141 9.05469C2.2236 8.57221 2.07896 8.0494 2.02441 7.5H1.5C1.22386 7.5 1 7.27614 1 7C1 6.72386 1.22386 6.5 1.5 6.5H2.02441C2.07899 5.95029 2.22339 5.42704 2.44141 4.94434L1.9873 4.68262C1.74818 4.54456 1.66569 4.23914 1.80371 4C1.94178 3.76085 2.24816 3.67931 2.4873 3.81738L2.94141 4.08008C3.25716 3.64197 3.64197 3.25716 4.08008 2.94141L3.81738 2.4873C3.67931 2.24816 3.76085 1.94178 4 1.80371C4.23914 1.66569 4.54456 1.74818 4.68262 1.9873L4.94434 2.44141C5.42704 2.22339 5.95029 2.07899 6.5 2.02441V1.5C6.5 1.22386 6.72386 1 7 1ZM8.67578 7.5C8.46049 8.22263 7.79258 8.75 7 8.75C6.86028 8.75 6.72498 8.73113 6.59473 8.7002L5.44727 10.6865C5.92477 10.8879 6.44922 11 7 11C9.03975 11 10.7217 9.47308 10.9678 7.5H8.67578ZM4.58203 3.8125C3.62049 4.54304 3 5.69926 3 7C3 8.30053 3.62075 9.45597 4.58203 10.1865L5.72852 8.2002C5.43256 7.88677 5.25 7.4651 5.25 7C5.25 6.53464 5.43227 6.11231 5.72852 5.79883L4.58203 3.8125ZM7 6.25C6.58579 6.25 6.25 6.58579 6.25 7C6.25 7.41421 6.58579 7.75 7 7.75C7.41421 7.75 7.75 7.41421 7.75 7C7.75 6.58579 7.41421 6.25 7 6.25ZM7 3C6.44935 3 5.92468 3.11123 5.44727 3.3125L6.59473 5.29883C6.72492 5.26793 6.86036 5.25 7 5.25C7.79258 5.25 8.46049 5.77737 8.67578 6.5H10.9678C10.7217 4.52692 9.03975 3 7 3Z" fill="red"/>
</svg>

<svg xmlns="http://www.w3.org/2000/svg" width="14" height="14" fill="none" viewBox="0 0 14 14"><path fill="red" d="M7 1a.5.5 0 0 1 .5.5v.524c.55.055 1.072.2 1.555.417l.262-.454a.5.5 0 1 1 .866.5l-.264.454c.438.316.823.7 1.139 1.14l.455-.264a.5.5 0 0 1 .5.866l-.455.261c.218.483.363 1.006.418 1.556h.524a.5.5 0 0 1 0 1h-.524c-.055.55-.2 1.072-.418 1.555l.455.262a.5.5 0 1 1-.5.866l-.455-.264c-.316.438-.7.823-1.139 1.139l.264.455a.5.5 0 0 1-.866.5l-.262-.455a5 5 0 0 1-1.555.417v.525a.5.5 0 0 1-1 0v-.525a5 5 0 0 1-1.556-.417l-.261.455a.5.5 0 1 1-.866-.5l.263-.455a5 5 0 0 1-1.139-1.139l-.454.264a.5.5 0 0 1-.5-.866l.454-.262A5 5 0 0 1 2.024 7.5H1.5a.5.5 0 0 1 0-1h.524c.055-.55.2-1.073.417-1.556l-.454-.261a.5.5 0 1 1 .5-.866l.454.263a5 5 0 0 1 1.14-1.139l-.264-.454a.5.5 0 0 1 .866-.5l.261.454A5 5 0 0 1 6.5 2.024V1.5A.5.5 0 0 1 7 1m1.676 6.5a1.75 1.75 0 0 1-2.081 1.2l-1.148 1.987a4 4 0 0 0 5.52-3.187zM4.582 3.813A4 4 0 0 0 3 7c0 1.3.62 2.456 1.582 3.187L5.729 8.2a1.74 1.74 0 0 1 0-2.401zM7 6.25a.75.75 0 1 0 0 1.5.75.75 0 0 0 0-1.5M7 3a4 4 0 0 0-1.553.313l1.148 1.986Q6.79 5.25 7 5.25c.793 0 1.46.527 1.676 1.25h2.292A4 4 0 0 0 7 3"/></svg>
